jekyll/assets/img/youtube_outlined.svg

<svg fill="none" height="22" viewBox="0 0 31 22" width="31" xmlns="http://www.w3.org/2000/svg"><path clip-rule="evenodd" d="m12.3821 15.0639v-8.81858c3.0879 1.47311 5.4795 2.89616 8.308 4.43038-2.3329 1.3117-5.2201 2.7834-8.308 4.3882zm17.209-13.20445c-.5327-.71148-1.4405-1.265311-2.4071-1.448665-2.8409-.546935-20.56397-.548491-23.40331 0-.77507.147306-1.46524.503365-2.05812 1.056575-2.498132 2.35069-1.71533742 14.95674-1.113192 16.99874.253208.8839.580542 1.5213.992782 1.9397.53112.5532 1.25831.9341 2.09359 1.1049 2.3391.4906 14.38975.7648 23.43885.0737.8337-.1473 1.5717-.5405 2.1538-1.1172 2.3098-2.3413 2.1523-15.65528.3027-18.60775z" fill="#fff" fill-rule="evenodd"/></svg>

<svg width="31" height="22" viewBox="0 0 31 22" fill="none" xmlns="http://www.w3.org/2000/svg">
<path fill-rule="evenodd" clip-rule="evenodd" d="M12.3821 15.0639V6.24532C15.47 7.71843 17.8616 9.14148 20.6901 10.6757C18.3572 11.9874 15.47 13.4591 12.3821 15.0639ZM29.5911 1.85945C29.0584 1.14797 28.1506 0.594139 27.184 0.410785C24.3431 -0.13615 6.62003 -0.137706 3.78069 0.410785C3.00562 0.558091 2.31545 0.91415 1.72257 1.46736C-0.775562 3.81805 0.00723258 16.4241 0.609378 18.4661C0.862586 19.35 1.18992 19.9874 1.60216 20.4058C2.13328 20.959 2.86047 21.3399 3.69575 21.5107C6.03485 22.0013 18.0855 22.2755 27.1346 21.5844C27.9683 21.4371 28.7063 21.0439 29.2884 20.4672C31.5982 18.1259 31.4407 4.81192 29.5911 1.85945Z" fill="white"/>
</svg>
